X:1
T:Title
%%score 1 2 3
L:1/8
Q:1/4=150
M:4/4
K:A
V:1 treble nm="Grand Piano, Track 1"
V:2 bass nm="Grand Piano, Melody"
V:3 bass nm="Grand Piano, Track 3"
V:1
 z4 e4 | e2 [Ge]2 A2 A2 | A4 G4 | A4 [GB]4 | A2 B2 A2 c2 | B4 B3 A | [Ge]4 G4 | B2 G2 E2 A2 | %8
 A4 A4 | [GB]4 B4 | c2 B2 A2 d2 | c4 B4 | A8 |] %13
V:2
 z4 E,4 | A,2 B,2 C2 D2 | C4 B,4 | A,4 B,4 | C2 E2 C2 A,2 | G,4[K:bass] F,4 | E,4 B,4 | %7
 G,2 E,2 A,2 A,2 | D4 C4 | B,4 E4 | E2 D2[K:bass] C2 B,2 | A,4 G,4 | A,8 |] %13
V:3
 z4 E,4 | C,2 E,2 A,2 D,2 | E,4 E,4 | A,,4 E,4 | A,2 G,2 A,2 A,,2 | B,,4 B,,4 | E,4 E,4 | %7
 E,2 D,2 C,2 F,2 | D,4 A,,4 | E,4 E,4 | A,2 E,2 F,2 D,2 | E,4 E,4 | A,,8 |] %13

